Origami/48x48/apps/sparkleshare.svg

<svg width="48" height="48" version="1" xmlns="http://www.w3.org/2000/svg">
 <rect x="4" y="17" width="40" height="26" rx="2" ry="2" style="opacity:.2"/>
 <path d="m4 34c0 1.108 0.892 2 2 2h36c1.108 0 2-0.892 2-2v-22c0-1.108-0.892-2-2-2h-20v-2c0-1.108-0.892-2-2-2h-14c-1.108 0-2 0.892-2 2" style="fill:#dd772f"/>
 <rect x="4" y="15" width="40" height="26" rx="2" ry="2" style="opacity:.2"/>
 <rect x="6" y="13" width="36" height="16" rx="2" ry="2" style="fill:#dcdcdc"/>
 <rect x="4" y="16" width="40" height="26" rx="2" ry="2" style="fill:#ee923a"/>
 <path d="m24.072266 20.019788c-0.883901-0.03082-1.684823 0.510263-1.97461 1.333984l-1.517578 4.60234-4.621094 0.0918c-1.910113 0.03818-2.698566 2.431047-1.175781 3.568359l3.683594 2.751953-1.339844 4.061723c-0.55432 1.803157 1.512062 3.282513 3.080078 2.205078l3.792969-2.603518 3.792969 2.603515c1.568016 1.077435 3.634398-0.401921 3.080078-2.205078l-1.339844-4.061723 3.683594-2.751953c1.522785-1.137312 0.734332-3.530177-1.175781-3.568359l-4.621094-0.0918-1.517578-4.60234c-0.272363-0.774292-0.99926-1.304142-1.830078-1.333981zm-0.072266 1.984375 1.978516 5.90898 6.021484 0.119141l-4.800781 3.58789 1.74414 5.383989-4.943359-3.390625-4.943359 3.390625 1.74414-5.383989-4.800781-3.58789 6.021484-0.119141z" style="opacity:.2"/>
 <path d="m24.072266 19.015622c-0.883901-0.03082-1.684823 0.510263-1.97461 1.333984l-1.517578 4.60234-4.621094 0.0918c-1.910113 0.03818-2.698566 2.431047-1.175781 3.568359l3.683594 2.751953-1.339844 4.061723c-0.55432 1.803157 1.512062 3.282513 3.080078 2.205078l3.792969-2.603518 3.792969 2.603515c1.568016 1.077435 3.634398-0.401921 3.080078-2.205078l-1.339844-4.061723 3.683594-2.751953c1.522785-1.137312 0.734332-3.530177-1.175781-3.568359l-4.621094-0.0918-1.517578-4.60234c-0.272363-0.774292-0.99926-1.304142-1.830078-1.333981zm-0.072266 1.984375 1.978516 5.90898 6.021484 0.119141l-4.800781 3.58789 1.74414 5.383989-4.943359-3.390625-4.943359 3.390625 1.74414-5.383989-4.800781-3.58789 6.021484-0.119141z" style="fill:#ffffff"/>
 <path d="m6 6c-1.108 0-2 0.892-2 2v1c0-1.108 0.892-2 2-2h14c1.108 0 2 0.892 2 2v-1c0-1.108-0.892-2-2-2zm16 4v1h20c1.108 0 2 0.892 2 2v-1c0-1.108-0.892-2-2-2z" style="fill:#ffffff;opacity:.1"/>
</svg>

<svg xmlns="http://www.w3.org/2000/svg" width="48" height="48" version="1">
 <rect style="opacity:0.2" width="40" height="26" x="4" y="17" rx="2" ry="2"/>
 <path style="fill:#dd772f" d="M 4,34 C 4,35.108 4.892,36 6,36 H 42 C 43.108,36 44,35.108 44,34 V 12 C 44,10.892 43.108,10 42,10 H 22 V 8 C 22,6.892 21.108,6 20,6 H 6 C 4.892,6 4,6.892 4,8"/>
 <rect style="opacity:0.2" width="40" height="26" x="4" y="15" rx="2" ry="2"/>
 <rect style="fill:#dcdcdc" width="36" height="16" x="6" y="13" rx="2" ry="2"/>
 <rect style="fill:#ee923a" width="40" height="26" x="4" y="16" rx="2" ry="2"/>
 <path style="opacity:0.2" d="m 24.072266,20.019788 c -0.883901,-0.03082 -1.684823,0.510263 -1.97461,1.333984 l -1.517578,4.60234 -4.621094,0.0918 c -1.910113,0.03818 -2.698566,2.431047 -1.175781,3.568359 l 3.683594,2.751953 -1.339844,4.061723 c -0.55432,1.803157 1.512062,3.282513 3.080078,2.205078 L 24,36.031507 l 3.792969,2.603515 c 1.568016,1.077435 3.634398,-0.401921 3.080078,-2.205078 l -1.339844,-4.061723 3.683594,-2.751953 c 1.522785,-1.137312 0.734332,-3.530177 -1.175781,-3.568359 l -4.621094,-0.0918 -1.517578,-4.60234 c -0.272363,-0.774292 -0.99926,-1.304142 -1.830078,-1.333981 z M 24,22.004163 25.978516,27.913143 32,28.032284 l -4.800781,3.58789 1.74414,5.383989 L 24,33.613538 19.056641,37.004163 20.800781,31.620174 16,28.032284 22.021484,27.913143 Z"/>
 <path style="fill:#ffffff" d="m 24.072266,19.015622 c -0.883901,-0.03082 -1.684823,0.510263 -1.97461,1.333984 l -1.517578,4.60234 -4.621094,0.0918 c -1.910113,0.03818 -2.698566,2.431047 -1.175781,3.568359 l 3.683594,2.751953 -1.339844,4.061723 c -0.55432,1.803157 1.512062,3.282513 3.080078,2.205078 L 24,35.027341 l 3.792969,2.603515 c 1.568016,1.077435 3.634398,-0.401921 3.080078,-2.205078 l -1.339844,-4.061723 3.683594,-2.751953 c 1.522785,-1.137312 0.734332,-3.530177 -1.175781,-3.568359 l -4.621094,-0.0918 -1.517578,-4.60234 c -0.272363,-0.774292 -0.99926,-1.304142 -1.830078,-1.333981 z M 24,20.999997 25.978516,26.908977 32,27.028118 l -4.800781,3.58789 1.74414,5.383989 L 24,32.609372 19.056641,35.999997 20.800781,30.616008 16,27.028118 22.021484,26.908977 Z"/>
 <path style="opacity:0.1;fill:#ffffff" d="M 6,6 C 4.892,6 4,6.892 4,8 V 9 C 4,7.892 4.892,7 6,7 H 20 C 21.108,7 22,7.892 22,9 V 8 C 22,6.892 21.108,6 20,6 Z M 22,10 V 11 H 42 C 43.108,11 44,11.892 44,13 V 12 C 44,10.892 43.108,10 42,10 Z"/>
</svg>
